src/img/logo-1.svg

<svg width="192" height="67" viewBox="0 0 192 67" fill="none" xmlns="http://www.w3.org/2000/svg">
<path d="M48.5312 50.7291H0V53.7605H50.3542L48.5312 50.7291Z" fill="#F7AB2B"/>
<path d="M60.6094 50.6664L62.4507 53.7602H74.5246L74.4343 50.6664H60.6094Z" fill="#F7AB2B"/>
<path d="M10.6362 56.7916V60.0903H54.1285L52.2346 56.8875L10.6362 56.7916Z" fill="#F7AB2B"/>
<path d="M16.7889 47.6252L41.7604 6.06393L38.8099 4.2915L14.8019 44.5397L6.43652 44.5356V47.6252H16.7889Z" fill="#F7AB2B"/>
<path d="M24.7472 47.6253L52.5081 1.77L49.5566 0L20.7329 47.6253H24.7472Z" fill="#F7AB2B"/>
<path d="M39.6948 29.2627L62.1624 66.612H66.286L41.6981 25.9138L39.6948 29.2627Z" fill="#F7AB2B"/>
<path d="M39.7814 36.1035L37.6957 32.6047L28.7007 47.6253H32.8887L39.7814 36.1035Z" fill="#F7AB2B"/>
<path d="M51.4553 16.5884L48.3671 14.7658L43.7075 22.5544L58.7531 47.6252H69.66V44.5931H60.8242L47.8056 22.6898L51.4553 16.5884Z" fill="#F7AB2B"/>
<path d="M91.736 34.5139C91.7048 35.0497 91.6467 35.5856 91.5612 36.1215C91.4757 36.6574 91.3593 37.1853 91.2115 37.7056C91.0641 38.2259 90.866 38.7036 90.6175 39.1384H97.793V28.3751H91.7827V32.9647C91.7827 33.4615 91.7668 33.978 91.736 34.5139ZM99.9366 41.491H88.591V44.5928H86.0518V39.1381H87.5431C87.8533 38.8116 88.1174 38.4236 88.3351 37.9732C88.5529 37.5228 88.7274 37.0257 88.8592 36.4822C88.9915 35.9387 89.0843 35.3717 89.139 34.7814C89.1937 34.1912 89.2203 33.5934 89.2203 32.9876V26.0218H100.356V39.1381H102.476V44.5928H99.9369V41.491H99.9366Z" fill="#2B1C14"/>
<path d="M108.236 32.3862C107.612 32.866 107.242 33.5019 107.124 34.2936H113.617C113.483 33.5019 113.138 32.866 112.582 32.3862C112.026 31.9057 111.318 31.6658 110.459 31.6658C109.6 31.6658 108.859 31.9057 108.236 32.3862ZM112.203 38.9303C112.691 38.7198 113.078 38.3954 113.365 37.9575H116.27C115.833 39.12 115.1 40.0377 114.072 40.7117C113.045 41.3857 111.883 41.7222 110.586 41.7222C109.676 41.7222 108.838 41.5668 108.071 41.2549C107.305 40.9433 106.644 40.5095 106.088 39.9536C105.532 39.3976 105.094 38.7409 104.774 37.9828C104.453 37.2247 104.293 36.3911 104.293 35.4813C104.293 34.6052 104.445 33.7882 104.748 33.0304C105.051 32.2723 105.477 31.6152 106.024 31.0596C106.572 30.5037 107.22 30.0657 107.97 29.7455C108.719 29.4253 109.549 29.2654 110.459 29.2654C111.334 29.2654 112.139 29.4212 112.872 29.7331C113.605 30.0446 114.236 30.4784 114.767 31.034C115.297 31.59 115.71 32.2387 116.005 32.9799C116.3 33.721 116.447 34.521 116.447 35.3802V35.9109C116.447 36.0792 116.43 36.2564 116.396 36.4413H107.073C107.224 37.2835 107.624 37.9617 108.272 38.4754C108.921 38.9891 109.692 39.246 110.585 39.246C111.175 39.2457 111.714 39.1408 112.203 38.9303Z" fill="#2B1C14"/>
<path d="M122.133 34.1108V41.394H119.48V29.7064H122.333L126.787 36.7639L131.268 29.7064H134.07V41.394H131.418V34.0862L126.762 41.394L122.133 34.1108Z" fill="#2B1C14"/>
<path d="M141.21 32.3862C140.587 32.866 140.217 33.5019 140.099 34.2936H146.592C146.458 33.5019 146.112 32.866 145.556 32.3862C145.001 31.9057 144.294 31.6658 143.434 31.6658C142.575 31.6654 141.834 31.9057 141.21 32.3862ZM145.178 38.9303C145.666 38.7198 146.053 38.3954 146.339 37.9575H149.246C148.808 39.12 148.075 40.0377 147.047 40.7117C146.02 41.3857 144.857 41.7222 143.56 41.7222C142.651 41.7222 141.813 41.5668 141.046 41.2549C140.279 40.9433 139.619 40.5095 139.062 39.9536C138.507 39.3976 138.069 38.7409 137.749 37.9828C137.428 37.2247 137.269 36.3911 137.269 35.4813C137.269 34.6052 137.42 33.7882 137.723 33.0304C138.026 32.2723 138.452 31.6152 138.999 31.0596C139.547 30.5037 140.195 30.0657 140.945 29.7455C141.694 29.4253 142.524 29.2654 143.434 29.2654C144.309 29.2654 145.114 29.4212 145.847 29.7331C146.58 30.0446 147.211 30.4784 147.742 31.034C148.272 31.59 148.685 32.2387 148.98 32.9799C149.275 33.721 149.422 34.521 149.422 35.3802V35.9109C149.422 36.0792 149.405 36.2564 149.372 36.4413H140.048C140.199 37.2835 140.599 37.9617 141.248 38.4754C141.896 38.9891 142.667 39.246 143.56 39.246C144.15 39.2457 144.689 39.1408 145.178 38.9303Z" fill="#2B1C14"/>
<path d="M162.246 29.7612V32.0778H157.812V41.3937H155.171V32.0778H150.762V29.7612H162.246Z" fill="#2B1C14"/>
<path d="M167.692 37.1371C167.894 37.6003 168.168 37.9918 168.513 38.312C168.858 38.6319 169.25 38.868 169.688 39.0196C170.127 39.1712 170.573 39.2467 171.027 39.2467C171.55 39.2467 172.026 39.1459 172.455 38.9434C172.885 38.7416 173.255 38.4719 173.567 38.1351C173.878 37.7983 174.119 37.3981 174.287 36.9349C174.455 36.4717 174.54 35.9874 174.54 35.482C174.54 34.9766 174.455 34.4964 174.287 34.0416C174.119 33.5867 173.878 33.191 173.567 32.8542C173.255 32.517 172.885 32.2477 172.455 32.0455C172.026 31.8433 171.55 31.7423 171.027 31.7423C170.573 31.7423 170.126 31.8181 169.688 31.9697C169.25 32.1213 168.859 32.3529 168.513 32.6645C168.168 32.9764 167.894 33.3679 167.692 33.8397C167.49 34.3112 167.389 34.8585 167.389 35.482C167.389 36.1221 167.49 36.6739 167.692 37.1371ZM164.812 29.5946H167.49V30.6809C167.911 30.2433 168.446 29.8978 169.094 29.6451C169.742 29.3924 170.446 29.2661 171.204 29.2661C172.164 29.2661 173.019 29.4388 173.769 29.7839C174.518 30.1294 175.146 30.5884 175.651 31.161C176.157 31.7339 176.544 32.3951 176.813 33.1446C177.083 33.8944 177.218 34.6733 177.218 35.482C177.218 36.2907 177.083 37.0737 176.813 37.8318C176.544 38.59 176.157 39.2553 175.651 39.8279C175.146 40.4008 174.519 40.8599 173.769 41.2053C173.019 41.5505 172.164 41.7229 171.204 41.7229C170.446 41.7229 169.742 41.5965 169.094 41.3442C168.446 41.0914 167.911 40.746 167.49 40.308V46.1993H164.812V29.5946Z" fill="#2B1C14"/>
<path d="M189.12 33.864C188.918 33.3921 188.644 32.9964 188.299 32.6762C187.953 32.3564 187.562 32.1203 187.123 31.9687C186.685 31.817 186.239 31.7412 185.784 31.7412C185.262 31.7412 184.786 31.8423 184.356 32.0445C183.927 32.2466 183.556 32.5163 183.245 32.8531C182.933 33.19 182.693 33.5902 182.525 34.0533C182.356 34.5169 182.272 35.0008 182.272 35.5062C182.272 36.0117 182.356 36.4918 182.525 36.9467C182.693 37.4015 182.933 37.7972 183.245 38.1341C183.556 38.4709 183.927 38.7406 184.356 38.9427C184.786 39.1449 185.262 39.246 185.784 39.246C186.239 39.246 186.685 39.1702 187.123 39.0185C187.561 38.8669 187.953 38.6353 188.299 38.3238C188.644 38.0119 188.918 37.6203 189.12 37.1488C189.322 36.677 189.423 36.1297 189.423 35.5062C189.423 34.8831 189.322 34.3355 189.12 33.864ZM192 41.3937H189.322V40.3074C188.901 40.7449 188.366 41.0904 187.717 41.3431C187.068 41.5958 186.366 41.7222 185.607 41.7222C184.647 41.7222 183.792 41.5494 183.043 41.2043C182.293 40.8588 181.665 40.3998 181.16 39.8269C180.655 39.2543 180.267 38.5931 179.998 37.8436C179.728 37.0938 179.593 36.3149 179.593 35.5062C179.593 34.6976 179.728 33.9145 179.998 33.1564C180.267 32.3983 180.655 31.7329 181.16 31.1603C181.665 30.5874 182.292 30.1284 183.043 29.7832C183.792 29.4378 184.647 29.265 185.607 29.265C186.365 29.265 187.068 29.3914 187.717 29.6441C188.366 29.8968 188.901 30.2423 189.322 30.6802V29.5935H192V41.3937Z" fill="#2B1C14"/>
<path d="M86.2134 47.5917H87.6064L89.0911 49.6947L90.5943 47.5917H91.9402L89.7548 50.6356L91.9402 53.7155H90.5572L89.0541 51.6035L87.5413 53.7155H86.2134L88.3898 50.6723L86.2134 47.5917Z" fill="black"/>
<path d="M96.9254 52.5904C97.168 52.4797 97.3771 52.3291 97.5526 52.1383C97.7275 51.9479 97.8642 51.725 97.9629 51.4699C98.0612 51.2147 98.111 50.9426 98.111 50.6536C98.111 50.3586 98.0612 50.0834 97.9629 49.8283C97.8645 49.5732 97.7275 49.352 97.5526 49.1647C97.3771 48.9767 97.1684 48.8279 96.9254 48.7174C96.6827 48.6066 96.4196 48.5513 96.1371 48.5513C95.8481 48.5513 95.5836 48.6066 95.3437 48.7174C95.1041 48.8279 94.8964 48.9767 94.7213 49.1647C94.5461 49.352 94.4094 49.5732 94.3107 49.8283C94.2127 50.0834 94.1632 50.3586 94.1632 50.6536C94.1632 50.9426 94.2127 51.2147 94.3107 51.4699C94.409 51.725 94.5461 51.9479 94.7213 52.1383C94.8964 52.3291 95.1038 52.4797 95.3437 52.5904C95.5836 52.7012 95.8481 52.7566 96.1371 52.7566C96.4196 52.7566 96.6827 52.7012 96.9254 52.5904ZM94.8455 53.5864C94.4585 53.4202 94.1234 53.1928 93.8406 52.9037C93.5578 52.6147 93.3393 52.2768 93.1856 51.8894C93.0319 51.5021 92.9551 51.0901 92.9551 50.6536C92.9551 50.2112 93.0323 49.7978 93.1856 49.4132C93.339 49.029 93.5574 48.6925 93.8406 48.4038C94.1234 48.1147 94.4585 47.8869 94.8455 47.7211C95.2329 47.555 95.6632 47.4722 96.1368 47.4722C96.6038 47.4722 97.0323 47.555 97.4228 47.7211C97.8136 47.8869 98.1505 48.1147 98.433 48.4038C98.7154 48.6925 98.9339 49.029 99.0879 49.4132C99.2409 49.7978 99.3185 50.2112 99.3185 50.6536C99.3185 51.0901 99.2409 51.5021 99.0879 51.8894C98.9342 52.2768 98.7158 52.6147 98.433 52.9037C98.1501 53.1928 97.8136 53.4202 97.4228 53.5864C97.0323 53.7522 96.6038 53.8353 96.1368 53.8353C95.6632 53.8353 95.2329 53.7522 94.8455 53.5864Z" fill="black"/>
<path d="M106.18 53.7152H104.972V48.6711H102.86V50.4968C102.86 50.8779 102.84 51.2608 102.8 51.6451C102.76 52.029 102.671 52.3748 102.533 52.6822C102.395 52.99 102.195 53.2389 101.934 53.4293C101.672 53.62 101.32 53.7152 100.877 53.7152H100.333V52.6268H100.684C100.912 52.6268 101.09 52.5638 101.219 52.4381C101.348 52.3121 101.445 52.1505 101.509 51.9539C101.574 51.7572 101.614 51.5371 101.629 51.2944C101.645 51.0517 101.652 50.8135 101.652 50.5799V47.5917H106.18V53.7152H106.18Z" fill="black"/>
<path d="M109.851 51.4931C109.802 51.9051 109.694 52.2862 109.528 52.6365H112.036V48.6714H109.924V50.331C109.924 50.6938 109.9 51.0808 109.851 51.4931ZM113.244 52.6365H114.083V55.0708H112.903V53.7156H108.707V55.0708H107.527V52.6365H108.117C108.228 52.5133 108.321 52.3658 108.398 52.1938C108.475 52.0217 108.536 51.8358 108.582 51.6357C108.629 51.436 108.662 51.2259 108.684 51.0043C108.706 50.7831 108.716 50.5615 108.716 50.3403V47.592H113.244V52.6365V52.6365Z" fill="black"/>
<path d="M119.848 49.4088L116.805 53.7152H115.597V47.5917H116.805V51.8985L119.848 47.5917H121.056V53.7152H119.848V49.4088Z" fill="black"/>
<path d="M127.162 51.1885H124.192V53.7152H122.984V47.592H124.192V50.1094H127.162V47.592H128.37V53.7152H127.162V51.1885Z" fill="black"/>
<path d="M131.505 48.6714V53.7152H130.297V47.5917H134.475V48.6714H131.505Z" fill="black"/>
</svg>

<svg width="192" height="67" fill="none" xmlns="http://www.w3.org/2000/svg"><path d="M48.531 50.73H0v3.03h50.354l-1.823-3.03ZM60.61 50.666l1.84 3.094h12.075l-.09-3.094H60.608ZM10.636 56.792v3.298h43.492l-1.893-3.203-41.599-.095ZM16.789 47.625 41.76 6.064l-2.95-1.772L14.802 44.54l-8.365-.004v3.09h10.352ZM24.747 47.625 52.508 1.77 49.557 0 20.733 47.625h4.014ZM39.695 29.263l22.467 37.349h4.124L41.698 25.914l-2.003 3.349ZM39.781 36.103l-2.085-3.498-8.995 15.02h4.188l6.892-11.522ZM51.455 16.588l-3.088-1.822-4.66 7.788 15.046 25.071H69.66v-3.032h-8.836L47.806 22.69l3.65-6.102Z" fill="#F7AB2B"/><path d="M91.736 34.514a16.16 16.16 0 0 1-.175 1.607 13.676 13.676 0 0 1-.35 1.585c-.147.52-.345.998-.593 1.432h7.175V28.375h-6.01v4.59c0 .496-.016 1.013-.047 1.549Zm8.2 6.977H88.592v3.102h-2.54v-5.455h1.492a4.55 4.55 0 0 0 .792-1.165c.218-.45.392-.947.524-1.49.133-.544.225-1.111.28-1.702.055-.59.081-1.188.081-1.793v-6.966h11.136v13.116h2.12v5.455h-2.54V41.49ZM108.236 32.386c-.624.48-.994 1.116-1.112 1.908h6.493c-.134-.792-.479-1.428-1.035-1.908-.556-.48-1.264-.72-2.123-.72-.859 0-1.6.24-2.223.72Zm3.967 6.544a2.58 2.58 0 0 0 1.162-.972h2.905a5.542 5.542 0 0 1-2.198 2.754c-1.027.674-2.189 1.01-3.486 1.01-.91 0-1.748-.155-2.515-.467a5.929 5.929 0 0 1-1.983-1.301 6.12 6.12 0 0 1-1.314-1.971c-.321-.758-.481-1.592-.481-2.502 0-.876.152-1.693.455-2.45a5.894 5.894 0 0 1 1.276-1.971 6.017 6.017 0 0 1 1.946-1.314c.749-.32 1.579-.48 2.489-.48.875 0 1.68.155 2.413.467a5.64 5.64 0 0 1 1.895 1.301c.53.556.943 1.205 1.238 1.946a6.43 6.43 0 0 1 .442 2.4v.53c0 .17-.017.346-.051.531h-9.323c.151.842.551 1.52 1.199 2.034.649.514 1.42.771 2.313.771.59 0 1.129-.105 1.618-.316ZM122.133 34.11v7.284h-2.653V29.706h2.853l4.454 7.058 4.481-7.058h2.802v11.688h-2.652v-7.308l-4.656 7.308-4.629-7.283ZM141.21 32.386c-.623.48-.993 1.116-1.111 1.908h6.493c-.134-.792-.48-1.428-1.036-1.908-.555-.48-1.262-.72-2.122-.72-.859 0-1.6.24-2.224.72Zm3.968 6.544c.488-.21.875-.535 1.161-.972h2.907a5.55 5.55 0 0 1-2.199 2.754c-1.027.674-2.19 1.01-3.487 1.01-.909 0-1.747-.155-2.514-.467a5.933 5.933 0 0 1-1.984-1.301 6.134 6.134 0 0 1-1.313-1.971c-.321-.758-.48-1.592-.48-2.502 0-.876.151-1.693.454-2.45a5.894 5.894 0 0 1 1.276-1.971 6.017 6.017 0 0 1 1.946-1.314c.749-.32 1.579-.48 2.489-.48.875 0 1.68.155 2.413.467a5.64 5.64 0 0 1 1.895 1.301c.53.556.943 1.205 1.238 1.946a6.43 6.43 0 0 1 .442 2.4v.53c0 .17-.017.346-.05.531h-9.324c.151.842.551 1.52 1.2 2.034.648.514 1.419.771 2.312.771.59 0 1.129-.105 1.618-.316ZM162.246 29.761v2.317h-4.434v9.316h-2.641v-9.316h-4.409V29.76h11.484ZM167.692 37.137c.202.463.476.855.821 1.175a3.3 3.3 0 0 0 1.175.708c.439.151.885.227 1.339.227.523 0 .999-.101 1.428-.304.43-.201.8-.471 1.112-.808.311-.337.552-.737.72-1.2.168-.463.253-.948.253-1.453 0-.505-.085-.986-.253-1.44a3.536 3.536 0 0 0-.72-1.188 3.562 3.562 0 0 0-1.112-.809 3.308 3.308 0 0 0-1.428-.303 4.07 4.07 0 0 0-1.339.228 3.4 3.4 0 0 0-1.175.694 3.318 3.318 0 0 0-.821 1.176c-.202.471-.303 1.018-.303 1.642 0 .64.101 1.192.303 1.655Zm-2.88-7.542h2.678v1.086c.421-.438.956-.783 1.604-1.036a5.76 5.76 0 0 1 2.11-.379c.96 0 1.815.173 2.565.518a5.597 5.597 0 0 1 1.882 1.377 6.051 6.051 0 0 1 1.162 1.984c.27.75.405 1.528.405 2.337 0 .809-.135 1.592-.405 2.35a6.018 6.018 0 0 1-1.162 1.996 5.582 5.582 0 0 1-1.882 1.377c-.75.346-1.605.518-2.565.518a5.768 5.768 0 0 1-2.11-.379c-.648-.253-1.183-.598-1.604-1.036v5.891h-2.678V29.595ZM189.12 33.864a3.445 3.445 0 0 0-.821-1.188 3.305 3.305 0 0 0-1.176-.707 4.063 4.063 0 0 0-1.339-.228c-.522 0-.998.101-1.428.303-.429.203-.8.472-1.111.81a3.5 3.5 0 0 0-.72 1.2 4.207 4.207 0 0 0-.253 1.452c0 .506.084.986.253 1.44.168.456.408.851.72 1.188.311.337.682.607 1.111.809.43.202.906.303 1.428.303.455 0 .901-.076 1.339-.227.438-.152.83-.384 1.176-.695a3.32 3.32 0 0 0 .821-1.175c.202-.472.303-1.02.303-1.643s-.101-1.17-.303-1.642Zm2.88 7.53h-2.678v-1.087c-.421.438-.956.783-1.605 1.036a5.76 5.76 0 0 1-2.11.38c-.96 0-1.815-.174-2.564-.519a5.588 5.588 0 0 1-1.883-1.377 6.064 6.064 0 0 1-1.162-1.983 6.846 6.846 0 0 1-.405-2.338c0-.808.135-1.592.405-2.35a6.036 6.036 0 0 1 1.162-1.996 5.573 5.573 0 0 1 1.883-1.377c.749-.345 1.604-.518 2.564-.518.758 0 1.461.126 2.11.38.649.252 1.184.597 1.605 1.035v-1.087H192v11.8Z" fill="#2B1C14"/><path d="M86.213 47.592h1.393l1.485 2.103 1.503-2.103h1.346l-2.185 3.044 2.185 3.08h-1.383l-1.503-2.113-1.513 2.112h-1.328l2.177-3.043-2.177-3.08ZM96.925 52.59c.243-.11.452-.26.628-.452.175-.19.311-.413.41-.668.098-.255.148-.527.148-.816 0-.295-.05-.57-.148-.826a1.953 1.953 0 0 0-1.038-1.11 1.876 1.876 0 0 0-.788-.167 1.87 1.87 0 0 0-.793.166 1.966 1.966 0 0 0-1.033 1.111c-.098.255-.148.53-.148.826 0 .289.05.56.148.816.098.255.235.478.41.668.175.191.383.342.623.452.24.111.504.167.793.167.283 0 .546-.056.788-.167Zm-2.08.996a3.033 3.033 0 0 1-1.66-1.697 3.32 3.32 0 0 1-.23-1.235c0-.443.077-.856.23-1.24a3.03 3.03 0 0 1 .656-1.01c.282-.29.618-.517 1.005-.683a3.244 3.244 0 0 1 1.29-.249c.468 0 .896.083 1.287.25.39.165.727.393 1.01.682.282.288.5.625.655 1.01.153.384.23.797.23 1.24 0 .436-.077.848-.23 1.235a3.033 3.033 0 0 1-1.665 1.697c-.39.166-.82.25-1.286.25-.474 0-.904-.084-1.291-.25ZM106.18 53.715h-1.208v-5.044h-2.112v1.826c0 .38-.02.764-.06 1.148-.04.384-.129.73-.267 1.037a1.836 1.836 0 0 1-.599.747c-.262.191-.614.286-1.057.286h-.544v-1.088h.351c.228 0 .406-.063.535-.189a1.17 1.17 0 0 0 .29-.484c.065-.197.105-.417.12-.66.016-.242.023-.48.023-.714v-2.988h4.528v6.123ZM109.851 51.493a3.66 3.66 0 0 1-.323 1.143h2.508v-3.965h-2.112v1.66c0 .363-.024.75-.073 1.162Zm3.393 1.143h.839v2.435h-1.18v-1.355h-4.196v1.355h-1.18v-2.434h.59a1.68 1.68 0 0 0 .281-.443c.077-.172.138-.358.184-.558.047-.2.08-.41.102-.632.022-.22.032-.442.032-.664v-2.748h4.528v5.044ZM119.848 49.409l-3.043 4.306h-1.208v-6.123h1.208v4.306l3.043-4.306h1.208v6.123h-1.208V49.41ZM127.162 51.188h-2.97v2.527h-1.208v-6.123h1.208v2.517h2.97v-2.517h1.208v6.123h-1.208v-2.527ZM131.505 48.671v5.044h-1.208v-6.123h4.178v1.08h-2.97Z" fill="#000"/></svg>
